X:1
T:I Would Be Like Thee
T:I Would Be Like Thee
T:Charles Hutchinson Gabriel
T:W. A. Schell, 1913
T:Public Domain Courtesy of the Cyber Hymnal™
T:Public Domain Courtesy of the Cyber Hymnal™
C:Charles Hutchinson Gabriel
Z:Public Domain
Z:Courtesy of the Cyber Hymnal™
%%score ( 1 2 ) ( 3 4 )
L:1/8
Q:1/4=104
M:9/8
K:Eb
V:1 treble 
V:2 treble 
V:3 bass 
V:4 bass 
V:1
 [EB][E=A][Ec] | [EB]3 [EG]3 [DF]E[DF] | [EG]6 [EA][EB][Ec] | [EB]3 [Ge]3 [EG][DF]E | %4
w: 1.~I would be|like Thee, Je- sus, my|Lord, Gen- tle and|lov- ing, trust- ing Thy|
w: 2.~I would be|like Thee, hum- ble in|mind, Grow- ing more|ear- nest, faith- ful and|
w: 3.~I would be|like Thee, speak- ing the|truth, Giv- ing my|life to God in my|
w: 4.~I would be|like Thee, when I am|tried, Crush- ing out|sin, temp- ta- tion and|
 [DF]6 [EB][E=A][Ec] | [EB]3 [EG]3 [DF]E[DF] | [EG]6 [EA][EB][Ec] | [EB]3 [Ge]2 [EG] [GB][FA][DF] | %8
w: word; Low- ly in|spir- it, pure in my|heart, Liv- ing each|day from all e- vil a-|
w: kind; Seek- ing for|souls, to save them from|sin, And for Thy|king- dom their ser- vice to|
w: youth; List- en- ing|for Thy mes- sage to|me, Spend- ing my|best days in work- ing for|
w: pride; All Thy com-|mand- ments would I o-|bey, Learn- ing Thy|will, Thee to fol- low al-|
 E6 ||"^Refrain" [Ec][_DB][CA] | [Ec]3 [Ac]3 [GB][FA][EG] | [GB]6 [GB][^F=A][GB] | %12
w: part.||||
w: win.|I would be|like Thee, filled with Thy|grace, Till in Thy|
w: Thee.||||
w: way.||||
 [Fd]3 [Fd]2 [Fd] [Ge][Fd][Ec] | B3- [AB]3 [GB][^F=A][_Ac] | [GB]3 [EG]3 [EG][EF]E | %15
w: |||
w: beau- ty, I look on Thy|face; I would be like|* Thee, lost in Thy|
w: |||
w: |||
 c6 [CA][EB][Ac] | [GB]3 [Ge]2 [EG] [GB][FA][DF] | E6 |] %18
w: |||
w: love, I would be|like Thee in Hea- ven a-|bove.|
w: |||
w: |||
V:2
 x3 | x7 E x | x9 | x8 E | x9 | x7 E x | x9 | x9 | E6 || x3 | x9 | x9 | x9 | D^FG x6 | x8 E | %15
 (EAA A3) x3 | x9 | E6 |] %18
V:3
 [E,G,][E,^F,][E,A,] | [E,G,]3 [E,B,]3 [B,,A,][B,,G,][B,,B,] | [E,B,]6 [C,A,][B,,G,][C,A,] | %3
w: ~ ~ ~|~ ~ ~ ~ ~|~ ~ ~ ~|
 [E,G,]3 [E,B,]3 [E,B,][F,B,][G,B,] | z3 A,3 [E,G,][E,^F,][E,A,] | %5
w: ~ ~ ~ ~ ~|~ ~ ~ ~|
 [E,G,]3 [E,B,]3 [B,,A,][B,,G,][B,,B,] | [E,B,]6 [C,A,][B,,G,][A,,A,] | %7
w: * ~ ~ ~ ~|~ ~ ~ ~|
 [E,G,]3 [E,B,]2 [E,B,] [B,,B,][B,,B,][B,,A,] | [E,G,]6 || z3 | %10
w: ~ ~ ~ ~ ~ ~|~||
 [A,,A,][A,,A,][A,,A,] [A,,E]2 [A,,E] z3 | [E,C][E,C][E,C] [E,C]3 z3 | %12
w: ~ ~ I would be|like Thee, filled with|
 [F,B,][F,B,][F,B,] [F,B,]3 [F,=A,]2 [F,A,] | [B,,B,][B,,D][B,,E] !fermata![B,,F]3 z3 | %14
w: Thy grace, Till in Thy beau-|ty I look on|
 [E,E][E,E][E,E] [E,B,]2 [E,B,] [E,B,][F,D][G,_D] | [A,,C][A,,E][E,E] [E,E]3 z3 | %16
w: Thy face; I would be like Thee, lost|in Thy won- der-|
 [E,E][E,E][E,E] [E,B,][E,B,][E,B,] [B,,B,][B,,B,][B,,B,] | [E,G,]6 |] %18
w: ful love, I would be like Thee, in Hea-|ven|
V:4
 x3 | x9 | x9 | x9 | [B,,B,]6 x3 | x9 | x9 | x9 | x6 || x3 | x9 | x9 | x9 | x9 | x9 | x9 | x9 | %17
 x6 |] %18

